dist/images/call__item-4.svg

<svg width="18" height="9" viewBox="0 0 18 9" fill="none" xmlns="http://www.w3.org/2000/svg">
<path d="M1.92132 3.71661C3.88504 1.75798 6.54692 0.659607 9.3232 0.66236C12.0995 0.665114 14.7635 1.76877 16.7311 3.7313C17.3183 4.3185 17.6487 5.11446 17.6495 5.94406C17.6503 6.77367 17.3216 7.56897 16.7355 8.15501C16.6124 8.28006 16.4772 8.39266 16.332 8.4912C16.1967 8.59156 16.0518 8.67839 15.8995 8.75042C15.7928 8.80158 15.6746 8.824 15.5566 8.81545C15.4385 8.8069 15.3246 8.76768 15.2262 8.70167L11.6803 6.47187C11.5841 6.41122 11.5047 6.3275 11.4491 6.22833C11.3936 6.12917 11.3638 6.01772 11.3623 5.90417C11.3574 5.77434 11.3574 5.76472 11.6402 4.86583C10.127 4.29894 8.4616 4.29387 6.9472 4.85156C7.2318 5.76063 7.23181 5.77025 7.22713 5.90007C7.22593 6.01362 7.19631 6.125 7.14097 6.22406C7.08563 6.32311 7.00635 6.40668 6.91034 6.46714L3.36877 8.68991C3.2709 8.75086 3.15909 8.78586 3.04385 8.79164C2.92861 8.79741 2.81374 8.77376 2.71005 8.72292C2.55527 8.64921 2.40716 8.56219 2.26742 8.46282C2.12712 8.36119 1.99516 8.2485 1.8728 8.12585C1.29697 7.5323 0.978876 6.73551 0.987966 5.90942C0.997057 5.08334 1.33259 4.29504 1.92132 3.71661Z" fill="white"/>
</svg>

<svg width="18" height="9" fill="none" xmlns="http://www.w3.org/2000/svg"><path d="M1.921 3.717A10.465 10.465 0 0 1 9.323.662a10.507 10.507 0 0 1 7.408 3.07 3.129 3.129 0 0 1 .004 4.423 2.67 2.67 0 0 1-.403.336c-.135.1-.28.187-.433.26a.68.68 0 0 1-.673-.05l-3.546-2.23a.682.682 0 0 1-.318-.567c-.005-.13-.005-.14.278-1.038a6.74 6.74 0 0 0-4.693-.014c.285.909.285.918.28 1.048a.679.679 0 0 1-.317.567L3.37 8.69a.679.679 0 0 1-.659.033 2.96 2.96 0 0 1-.837-.597 3.134 3.134 0 0 1-.885-2.217c.01-.826.345-1.614.933-2.192Z" fill="#fff"/></svg>
